picto/tracks-90-de-small-framed.svg

<svg class="color-immutable" width="30" height="30" viewBox="0 0 30 30" fill="none" xmlns="http://www.w3.org/2000/svg"><path d="M30 0H0V30H30V0Z" fill="#2D327D"/><path d="M25.5 3C26.325 3 27 3.675 27 4.5V25.5C27 26.325 26.325 27 25.5 27H4.5C3.675 27 3 26.325 3 25.5V4.5C3 3.675 3.675 3 4.5 3H25.5ZM25.5 2.625H4.5C3.46613 2.625 2.625 3.46613 2.625 4.5V25.5C2.625 26.5339 3.46613 27.375 4.5 27.375H25.5C26.5339 27.375 27.375 26.5339 27.375 25.5V4.5C27.375 3.46613 26.5339 2.625 25.5 2.625Z" fill="white"/><path d="M6.36744 21.1795H8.49002C8.66424 22.0511 9.16929 22.4869 10.005 22.4869C10.4767 22.4869 10.8599 22.3267 11.1548 22.0062C11.4495 21.6859 11.6764 21.1872 11.8354 20.5105C11.9379 20.0798 12.0122 19.5902 12.0584 19.0416C11.7149 19.5236 11.3624 19.8658 11.001 20.0682C10.6396 20.2709 10.1999 20.372 9.68214 20.372C8.85662 20.372 8.13887 20.1311 7.52882 19.6491C7.10319 19.3107 6.77132 18.8724 6.53289 18.3341C6.29447 17.7957 6.17529 17.2112 6.17529 16.5806C6.17529 15.3143 6.60849 14.2889 7.47497 13.5044C8.21829 12.8277 9.11042 12.4893 10.1513 12.4893C10.7921 12.4893 11.3843 12.6329 11.9278 12.92C12.4712 13.2071 12.9275 13.6148 13.2967 14.1428C13.9478 15.081 14.2733 16.3987 14.2733 18.0956C14.2733 19.6645 13.9862 21.0026 13.412 22.11C12.6635 23.5508 11.5304 24.271 10.0129 24.271C9.00279 24.271 8.16842 23.9916 7.50969 23.4327C6.85059 22.874 6.46997 22.1229 6.36744 21.1795ZM10.105 14.3888C9.62304 14.3888 9.21542 14.5862 8.88219 14.981C8.54889 15.3809 8.38232 15.8885 8.38232 16.5038C8.38232 17.0012 8.50269 17.442 8.74374 17.8265C9.07179 18.3547 9.53319 18.6187 10.128 18.6187C10.6664 18.6187 11.097 18.4034 11.42 17.9727C11.7225 17.5678 11.8738 17.0858 11.8738 16.5269C11.8738 15.9374 11.7173 15.4376 11.4047 15.0273C11.0765 14.6016 10.6433 14.3888 10.105 14.3888Z" fill="white"/><path d="M19.8211 12.4893C20.6773 12.4893 21.4309 12.7508 22.0821 13.2737C22.7281 13.7967 23.1972 14.6017 23.4895 15.6885C23.7098 16.5191 23.8201 17.4215 23.8201 18.3956C23.8201 20.0105 23.533 21.3385 22.9588 22.3792C22.6204 22.9842 22.1782 23.4508 21.6322 23.7788C21.0862 24.1069 20.4773 24.271 19.8057 24.271C18.8879 24.271 18.1035 23.9942 17.4524 23.4404C16.2937 22.4561 15.7144 20.7745 15.7144 18.3955C15.7144 16.7036 16.0168 15.345 16.6219 14.3195C16.9653 13.7351 17.4151 13.2839 17.9716 12.966C18.5278 12.6482 19.1443 12.4893 19.8211 12.4893ZM19.7365 14.3888C18.9982 14.3888 18.4957 14.8145 18.2292 15.6654C18.0189 16.3421 17.9139 17.2907 17.9139 18.5108C17.9139 19.5875 18.0216 20.4515 18.2369 21.1025C18.5137 21.9485 19.0264 22.3715 19.775 22.3715C20.3953 22.3715 20.8567 22.0434 21.1593 21.3871C21.4617 20.7309 21.613 19.7286 21.613 18.3801C21.613 17.2317 21.5053 16.3268 21.29 15.6654C21.0131 14.8145 20.4952 14.3888 19.7365 14.3888Z" fill="white"/><path d="M8.0955 7.03665V8.24865H7.7817L7.7325 7.99178C7.56637 8.19893 7.34235 8.3025 7.06035 8.3025C6.71685 8.3025 6.44565 8.17538 6.24667 7.92105C6.0816 7.7088 5.99902 7.44683 5.99902 7.13513C5.99902 6.78135 6.10672 6.4917 6.32205 6.2661C6.52402 6.0528 6.78502 5.94615 7.1049 5.94615C7.40025 5.94615 7.6407 6.04148 7.82625 6.2322C7.9647 6.37575 8.04412 6.54495 8.06467 6.7398H7.5894C7.5648 6.61883 7.50967 6.52448 7.42402 6.45683C7.33837 6.38918 7.23 6.35528 7.09875 6.35528C6.89985 6.35528 6.74602 6.43215 6.63735 6.58598C6.54202 6.7203 6.49432 6.9018 6.49432 7.13048C6.49432 7.35398 6.53895 7.53143 6.62812 7.66268C6.73785 7.82363 6.89985 7.90418 7.11412 7.90418C7.26892 7.90418 7.39582 7.85753 7.49482 7.76423C7.59382 7.67093 7.6458 7.54838 7.65097 7.39665H7.1511V7.03673H8.0955V7.03665Z" fill="white"/><path d="M8.90306 6V8.24865H8.45703V6H8.90306Z" fill="white"/><path d="M10.7749 7.72575C10.7513 7.8201 10.7087 7.90875 10.6472 7.99185C10.4995 8.19383 10.2873 8.29485 10.0105 8.29485C9.76026 8.29485 9.55978 8.21588 9.40903 8.058C9.33523 7.98113 9.27883 7.88828 9.23983 7.7796C9.19776 7.66373 9.17676 7.54275 9.17676 7.4166C9.17676 7.17255 9.24703 6.9675 9.38751 6.80138C9.54441 6.61575 9.74743 6.52298 9.99658 6.52298C10.1976 6.52298 10.3688 6.585 10.5103 6.70905C10.6119 6.79823 10.6857 6.90825 10.7318 7.03898C10.7779 7.1697 10.801 7.33403 10.801 7.53196H9.63058C9.63471 7.614 9.64753 7.68218 9.66906 7.73655C9.72958 7.88318 9.84441 7.95653 10.0136 7.95653C10.0966 7.95653 10.1644 7.9383 10.2166 7.90193C10.2689 7.86555 10.312 7.80683 10.3459 7.72583H10.7749V7.72575ZM10.3457 7.23203C10.3375 7.15103 10.3191 7.08383 10.2904 7.0305C10.2616 6.97823 10.2209 6.93668 10.1681 6.90593C10.1153 6.87518 10.0576 6.8598 9.99508 6.8598C9.89563 6.8598 9.81358 6.8931 9.74901 6.95978C9.68443 7.02645 9.64596 7.1172 9.63366 7.23203H10.3457Z" fill="white"/><path d="M11.5239 6V6.40147H11.0779V6H11.5239ZM11.5239 6.57217V8.24873H11.0779V6.57217H11.5239Z" fill="white"/><path d="M13.2481 7.05975H12.8298C12.8216 7.0023 12.8057 6.95873 12.7821 6.92903C12.736 6.86955 12.6503 6.83985 12.5252 6.83985C12.4462 6.83985 12.3853 6.85418 12.3422 6.88291C12.2992 6.91163 12.2776 6.95213 12.2776 7.0044C12.2776 7.05975 12.3015 7.10025 12.3492 7.1259C12.3969 7.15155 12.5058 7.18178 12.676 7.21665C12.8924 7.26075 13.0483 7.31558 13.1436 7.3812C13.2564 7.45808 13.3128 7.57501 13.3128 7.7319C13.3128 7.91138 13.243 8.05028 13.1036 8.14875C12.9662 8.24618 12.7842 8.29485 12.5576 8.29485C12.2767 8.29485 12.0706 8.22563 11.9393 8.08718C11.8511 7.99283 11.8019 7.86413 11.7916 7.70115H12.2192C12.2274 7.77705 12.2469 7.83443 12.2776 7.87343C12.3351 7.94318 12.4299 7.97805 12.5622 7.97805C12.6544 7.97805 12.7278 7.9593 12.7822 7.92188C12.8365 7.88445 12.8637 7.83398 12.8637 7.77038C12.8637 7.71293 12.8404 7.67018 12.7937 7.64198C12.7471 7.61378 12.6484 7.58228 12.4976 7.54741C12.352 7.51358 12.249 7.48718 12.1885 7.4682C12.1279 7.44923 12.0736 7.42643 12.0254 7.39973C11.9629 7.3638 11.9142 7.31363 11.8793 7.24898C11.8444 7.18433 11.827 7.11263 11.827 7.03365C11.827 6.85935 11.8993 6.72653 12.0439 6.63525C12.1618 6.5604 12.3259 6.52298 12.5361 6.52298C12.814 6.52298 13.0134 6.5937 13.1344 6.73523C13.2 6.8121 13.2379 6.92025 13.2481 7.05975Z" fill="white"/></svg>

<svg class="color-immutable" width="30" height="30" viewBox="0 0 30 30" fill="none" xmlns="http://www.w3.org/2000/svg"><g clip-path="url(#a)"><path d="M30 0H0v30h30V0Z" fill="#2D327D"/><path d="M25.5 3c.825 0 1.5.675 1.5 1.5v21c0 .825-.675 1.5-1.5 1.5h-21c-.825 0-1.5-.675-1.5-1.5v-21C3 3.675 3.675 3 4.5 3h21Zm0-.375h-21A1.877 1.877 0 0 0 2.625 4.5v21c0 1.034.841 1.875 1.875 1.875h21a1.877 1.877 0 0 0 1.875-1.875v-21A1.877 1.877 0 0 0 25.5 2.625Z" fill="#fff"/><path d="M6.367 21.18H8.49c.174.871.68 1.307 1.515 1.307.472 0 .855-.16 1.15-.48.295-.321.521-.82.68-1.497.103-.43.177-.92.223-1.468-.343.482-.696.824-1.057 1.026-.361.203-.801.304-1.319.304-.825 0-1.543-.24-2.153-.723a3.41 3.41 0 0 1-.996-1.315 4.282 4.282 0 0 1-.358-1.753c0-1.267.433-2.292 1.3-3.077.743-.676 1.635-1.015 2.676-1.015.641 0 1.233.144 1.777.431.543.287 1 .695 1.369 1.223.65.938.976 2.256.976 3.953 0 1.569-.287 2.907-.861 4.014-.748 1.44-1.882 2.161-3.4 2.161-1.01 0-1.844-.28-2.502-.838-.66-.559-1.04-1.31-1.143-2.253Zm3.738-6.791c-.482 0-.89.197-1.223.592-.333.4-.5.908-.5 1.523 0 .497.12.938.362 1.322.328.529.79.793 1.384.793.538 0 .969-.216 1.292-.646.303-.405.454-.887.454-1.446 0-.59-.157-1.09-.47-1.5a1.561 1.561 0 0 0-1.299-.638ZM19.821 12.49c.856 0 1.61.26 2.261.784.646.523 1.115 1.328 1.407 2.415.22.83.331 1.733.331 2.707 0 1.614-.287 2.942-.861 3.983-.339.605-.78 1.072-1.327 1.4a3.478 3.478 0 0 1-1.826.492c-.918 0-1.703-.277-2.354-.83-1.158-.985-1.738-2.666-1.738-5.046 0-1.691.303-3.05.908-4.075a3.655 3.655 0 0 1 1.35-1.354 3.662 3.662 0 0 1 1.85-.477Zm-.085 1.899c-.738 0-1.24.426-1.507 1.276-.21.677-.315 1.626-.315 2.846 0 1.076.108 1.94.323 2.591.277.846.79 1.27 1.538 1.27.62 0 1.082-.329 1.384-.985.303-.656.454-1.658.454-3.007 0-1.148-.108-2.053-.323-2.715-.277-.85-.795-1.276-1.553-1.276ZM8.095 7.037v1.212h-.313l-.05-.257a.816.816 0 0 1-.672.31c-.343 0-.614-.127-.813-.38-.165-.213-.248-.475-.248-.787 0-.354.108-.643.323-.869a1.03 1.03 0 0 1 .783-.32c.295 0 .536.095.721.286a.84.84 0 0 1 .239.508h-.476a.464.464 0 0 0-.165-.283.509.509 0 0 0-.325-.102.532.532 0 0 0-.462.231c-.095.134-.143.316-.143.544 0 .224.045.401.134.533a.55.55 0 0 0 .486.241.533.533 0 0 0 .38-.14.507.507 0 0 0 .157-.367h-.5v-.36h.944ZM8.903 6v2.249h-.446V6h.446ZM10.775 7.726a.751.751 0 0 1-.128.266c-.148.202-.36.303-.636.303-.25 0-.451-.08-.602-.237a.773.773 0 0 1-.17-.278 1.055 1.055 0 0 1-.062-.363c0-.244.07-.45.21-.616a.76.76 0 0 1 .61-.278c.2 0 .372.062.513.186.102.09.176.2.222.33.046.13.069.295.069.493h-1.17a.65.65 0 0 0 .038.205c.06.146.175.22.345.22.083 0 .15-.019.203-.055a.39.39 0 0 0 .129-.176h.429Zm-.43-.494a.54.54 0 0 0-.055-.202.338.338 0 0 0-.295-.17c-.1 0-.181.033-.246.1a.446.446 0 0 0-.115.272h.712ZM11.524 6v.401h-.446V6h.446Zm0 .572V8.25h-.446V6.572h.446ZM13.248 7.06h-.418a.27.27 0 0 0-.048-.131c-.046-.06-.132-.09-.257-.09a.328.328 0 0 0-.183.044.138.138 0 0 0-.064.121c0 .056.024.096.071.122.048.026.157.056.327.09.216.045.372.1.468.165.112.077.169.194.169.35a.48.48 0 0 1-.21.418c-.137.097-.319.146-.545.146-.281 0-.487-.07-.619-.208a.601.601 0 0 1-.147-.386h.427a.335.335 0 0 0 .059.172c.057.07.152.105.284.105a.382.382 0 0 0 .22-.056.175.175 0 0 0 .082-.152.14.14 0 0 0-.07-.128 1.2 1.2 0 0 0-.296-.095 4.83 4.83 0 0 1-.31-.079.876.876 0 0 1-.163-.068.376.376 0 0 1-.146-.151.446.446 0 0 1-.052-.215c0-.175.072-.307.217-.399.118-.075.282-.112.492-.112.278 0 .477.07.598.212a.55.55 0 0 1 .114.325Z" fill="#fff"/></g><defs><clipPath id="a"><path fill="#fff" d="M0 0h30v30H0z"/></clipPath></defs></svg>
